X: 1866
T: The Shoemakers Fancy
B: australian traditional tunes wiki
M:6/8
L:1/8
R: Jig
Q: 3/8=100
K:D
V:1 
B|:"Em"AGE GAB|dBBB2c|B/A/GE DGB|"D7"dBAA3|
"Em"B/A/GF GAB|dBB "C"g2a|"Em"bgg "C"ege|"Em"dBG "D7"A2B:|
|:"Em"dBB gBB|"G"dBBd2e|"Em"dBBg2g|bee efe|
dBB gBB|"G"dBB"C"g2a|"Em"bgg "C"ege|1"Em"dBG"D"A2B:|2"Em"dBG"D"A2||
% abcbook-tune_id 6342d53ae6f9dcfd71feb8d8


% abcbook-boost 0
% abcbook-tablature 
% abcbook-transpose 
% abcbook-lastupdated 1665324389036
% abcbook-soundfonts 
% abcbook-repeats 1
% NFF Book 2010

